_inc/systems/logos/fmtowns.svg

<?xml version="1.0" encoding="utf-8"?>
<svg viewBox="0 0 3840 1260" xmlns="http://www.w3.org/2000/svg">
  <path class="st0" d="M 1400.6 933.8 C 1411.2 818.8 1507.9 728.8 1625.7 728.8 C 1743.5 728.8 1840.1 818.8 1850.8 933.8 L 1930.1 933.8 C 1919.3 775.1 1787.2 649.7 1625.8 649.7 C 1464.4 649.7 1332.3 775.1 1321.5 933.8 L 1400.6 933.8 Z" id="path4" style="fill-opacity: 1; fill: rgb(255, 255, 255);"/>
  <path class="st0" d="M 1625.6 1180.9 C 1506 1180.9 1408.1 1087.9 1400.1 970.3 L 1320.9 970.3 C 1329 1131.6 1462.3 1259.9 1625.6 1259.9 C 1788.9 1259.9 1922.3 1131.6 1930.3 970.3 L 1851.1 970.3 C 1843.2 1088 1745.3 1180.9 1625.6 1180.9 Z" id="path6" style="fill-opacity: 1; fill: rgb(255, 255, 255);"/>
  <rect x="1039.7" y="970.3" class="st0" width="79.1" height="269.8" id="rect8" style="fill-opacity: 1; fill: rgb(255, 255, 255);"/>
  <polygon class="st0" points="1347.9 669.9 813.8 669.9 813.8 749 1039.7 749 1039.7 933.8 1118.8 933.8 1118.8 749 1347.9 749" id="polygon10" style="fill-opacity: 1; fill: rgb(255, 255, 255);"/>
  <rect x="2728.6" y="970.3" class="st0" width="79.1" height="269.8" id="rect12" style="fill-opacity: 1; fill: rgb(255, 255, 255);"/>
  <path class="st0" d="M 3162.2 1161.1 L 3142.8 1161.1 L 3057.9 970.4 L 2971.4 970.4 L 3080.6 1215.7 C 3087.2 1230.6 3102 1240.1 3118.2 1240.1 L 3162.1 1240.1 L 3206 1240.1 L 3241.1 1240.1 L 3241.1 970.3 L 3162 970.3 L 3162 1161.1 L 3162.2 1161.1 Z" id="path14" style="fill-opacity: 1; fill: rgb(255, 255, 255);"/>
  <rect x="3162.2" y="669.9" class="st0" width="79.1" height="263.9" id="rect16" style="fill-opacity: 1; fill: rgb(255, 255, 255);"/>
  <path class="st0" d="M 2935 694.4 C 2928.4 679.5 2913.6 670 2897.4 670 L 2807.6 670 L 2758.9 670 L 2728.6 670 L 2728.6 933.9 L 2807.7 933.9 L 2807.7 749 L 2872.9 749 L 2955.2 933.8 L 3041.7 933.8 L 2935 694.4 Z" id="path18" style="fill-opacity: 1; fill: rgb(255, 255, 255);"/>
  <polygon class="st0" points="2532.5 933.8 2613.5 933.8 2672 669.9 2591 669.9" id="polygon20" style="fill-opacity: 1; fill: rgb(255, 255, 255);"/>
  <polygon class="st0" points="2140 1164.8 2125.5 1164.8 2082.4 970.3 2001.4 970.3 2061.2 1240.1 2123.3 1240.1 2142.2 1240.1 2204.2 1240.1 2264 970.3 2183.1 970.3" id="polygon22" style="fill-opacity: 1; fill: rgb(255, 255, 255);"/>
  <polygon class="st0" points="2481.3 1164.8 2466.9 1164.8 2423.8 970.3 2342.8 970.3 2402.6 1240.1 2464.6 1240.1 2483.6 1240.1 2545.6 1240.1 2605.4 970.3 2524.4 970.3" id="polygon24" style="fill-opacity: 1; fill: rgb(255, 255, 255);"/>
  <polygon class="st0" points="2357.2 669.9 2330.7 669.9 2276.2 669.9 2249.7 669.9 2191.2 933.8 2272.1 933.8 2303.4 792.8 2334.7 933.8 2415.7 933.8" id="polygon26" style="fill-opacity: 1; fill: rgb(255, 255, 255);"/>
  <polygon class="st0" points="2015.8 669.9 1934.8 669.9 1993.3 933.8 2074.3 933.8" id="polygon28" style="fill-opacity: 1; fill: rgb(255, 255, 255);"/>
  <path class="st0" d="M 3418.3 922 L 3641.4 922 C 3662.8 922 3681.2 926.3 3696.9 933.8 L 3811.3 933.8 C 3780.2 881.4 3724 843.3 3642.5 843 L 3418.3 843 C 3355.6 843 3355.6 749 3418.3 749 L 3806.9 749 L 3806.9 669.9 L 3418.3 669.9 C 3250.3 669.9 3250.3 922 3418.3 922 Z" id="path30" style="fill-opacity: 1; fill: rgb(255, 255, 255);"/>
  <path class="st0" d="M 3828.2 970.3 L 3739.6 970.3 C 3787.5 1040.1 3754.8 1161 3641.4 1161 L 3294.1 1161 L 3294.1 1240.1 L 3641.4 1240.1 C 3806.1 1240.1 3868.4 1086.5 3828.2 970.3 Z" id="path32" style="fill-opacity: 1; fill: rgb(255, 255, 255);"/>
  <path id="path5600_6_" class="st0" d="M 1372.109 340.917 L 1434.62 340.917 C 1446.526 340.917 1457.583 349.421 1458.008 360.903 L 1458.433 360.903 L 1458.433 313.701 L 1372.109 313.701 L 1372.109 231.203 L 1455.457 231.203 C 1467.363 231.203 1478.42 239.708 1478.845 251.19 L 1479.27 251.19 L 1479.27 203.988 L 1304.495 203.988 L 1304.495 204.413 C 1316.402 205.263 1324.906 217.596 1324.906 229.077 L 1324.906 445.102 C 1324.906 456.583 1315.976 469.341 1304.495 469.766 L 1304.495 470.191 L 1392.52 470.191 L 1392.52 469.766 C 1380.614 468.915 1371.683 456.583 1371.683 445.102 L 1372.109 340.917 Z" style="fill-opacity: 1; fill: rgb(255, 255, 255);"/>
  <path id="path5604_6_" class="st0" d="M 1552.718 399.484 C 1552.718 427.125 1575.681 451.364 1604.172 451.364 C 1632.664 451.364 1656.052 427.125 1656.052 399.484 L 1656.052 230.237 C 1656.052 218.755 1647.122 205.998 1635.215 205.573 L 1635.215 205.147 L 1723.666 205.147 C 1711.759 205.998 1702.829 218.33 1702.829 229.811 L 1702.829 394.381 C 1702.829 447.537 1659.029 478.155 1604.598 478.155 C 1550.166 478.155 1505.516 447.112 1505.516 394.381 L 1505.516 229.811 C 1505.516 218.33 1496.585 205.573 1485.104 205.147 L 1485.104 204.722 L 1573.13 204.722 L 1573.13 205.147 C 1561.223 205.998 1552.718 218.33 1552.718 229.811 L 1552.718 399.484 Z" style="fill-opacity: 1; fill: rgb(255, 255, 255);"/>
  <path id="path5608_6_" class="st0" d="M 2274.006 247.481 C 2259.123 223.668 2225.528 226.644 2225.528 226.644 C 2170.246 226.644 2172.798 268.744 2172.798 268.744 C 2172.798 268.744 2168.971 290.006 2196.612 304.039 L 2251.894 333.381 C 2305.049 361.872 2298.67 402.27 2298.67 402.27 C 2298.67 402.27 2301.222 477.964 2189.808 477.964 C 2189.808 477.964 2157.489 478.814 2139.204 472.011 L 2123.47 423.107 L 2123.895 423.107 C 2140.905 447.346 2190.233 451.174 2190.233 451.174 C 2252.744 448.622 2253.169 406.098 2253.169 406.098 C 2253.169 406.098 2256.146 387.812 2231.482 374.629 L 2176.625 345.288 C 2119.217 314.67 2126.021 273.421 2126.021 273.421 C 2126.021 273.421 2124.32 199.003 2222.977 199.003 C 2222.977 199.003 2267.202 200.279 2274.431 207.083 L 2274.431 247.481 L 2274.006 247.481 Z" style="fill-opacity: 1; fill: rgb(255, 255, 255);"/>
  <path id="path5612_6_" class="st0" d="M 1843.578 111.695 C 1853.358 121.051 1866.966 127.004 1881.85 127.004 C 1912.042 127.004 1936.281 103.191 1936.281 74.274 C 1936.281 45.357 1912.042 21.544 1881.85 21.544 C 1881.85 21.544 1840.176 17.716 1821.04 69.596 L 1821.04 30.474 C 1835.073 12.613 1856.76 -0.144 1881.424 -0.144 C 1923.949 -0.144 1957.969 33.025 1957.969 74.274 C 1957.969 115.523 1923.524 148.692 1881.424 148.692 C 1860.162 148.692 1841.026 140.187 1827.418 127.004 L 1801.053 98.088 C 1793.824 91.284 1784.043 86.606 1772.987 86.606 C 1750.874 86.606 1733.439 104.041 1733.439 125.303 C 1733.439 146.566 1751.3 164.001 1772.987 164.001 C 1772.987 164.001 1802.329 167.828 1821.04 132.532 L 1821.04 164.001 C 1809.558 177.183 1792.548 186.113 1772.987 186.113 C 1738.542 186.113 1710.901 158.898 1710.901 125.729 C 1710.901 92.559 1738.542 65.344 1772.987 65.344 C 1789.997 65.344 1805.731 72.148 1816.787 83.204 L 1843.578 111.695 Z" style="fill-opacity: 1; fill: rgb(255, 255, 255);"/>
  <path id="path5616_6_" class="st0" d="M 1857.793 229.402 C 1857.793 217.921 1848.863 206.014 1836.956 205.163 L 1836.956 204.738 L 1924.981 204.738 L 1924.981 205.163 C 1913.5 206.014 1904.57 217.921 1904.57 229.402 L 1904.57 445.852 C 1904.57 457.334 1913.5 470.091 1924.981 470.516 L 1924.981 470.942 L 1836.956 470.942 L 1836.956 470.516 C 1848.863 469.666 1857.793 457.334 1857.793 445.852 L 1857.793 229.402 Z" style="fill-opacity: 1; fill: rgb(255, 255, 255);"/>
  <path id="path5620_6_" class="st0" d="M 1802.674 229.63 C 1802.674 218.149 1811.604 205.391 1823.086 204.966 L 1823.086 204.541 L 1735.06 204.541 L 1735.06 204.966 C 1746.967 205.817 1755.472 218.149 1755.472 229.63 L 1755.472 500.511 C 1755.472 500.511 1754.621 548.139 1715.924 575.78 L 1715.924 576.205 C 1723.578 574.929 1802.249 560.471 1802.249 484.352 L 1802.674 229.63 Z" style="fill-opacity: 1; fill: rgb(255, 255, 255);"/>
  <path id="path5624_6_" class="st0" d="M 1924.917 252.424 L 1925.342 252.424 C 1937.249 231.587 1955.534 231.587 1955.534 231.587 L 2003.162 231.587 L 2003.162 445.911 C 2003.162 457.392 1994.232 470.15 1982.325 470.575 L 1982.325 471 L 2070.776 471 L 2070.776 470.575 C 2058.869 469.724 2049.939 457.392 2049.939 445.911 L 2049.939 231.587 L 2089.912 231.587 C 2102.244 231.587 2111.599 240.943 2112.025 252.85 L 2112.45 252.85 L 2126.908 204.797 L 1938.95 204.797 L 1924.917 252.424 Z" style="fill-opacity: 1; fill: rgb(255, 255, 255);"/>
  <path id="path5628_6_" class="st0" d="M 2364.698 399.484 C 2364.698 427.125 2387.661 451.364 2416.578 451.364 C 2445.069 451.364 2468.458 427.125 2468.458 399.484 L 2468.458 230.237 C 2468.458 218.755 2459.528 205.998 2448.046 205.573 L 2448.046 205.147 L 2536.072 205.147 C 2524.165 205.998 2515.66 218.33 2515.66 229.811 L 2515.66 394.381 C 2515.66 447.537 2471.86 478.155 2417.003 478.155 C 2362.572 478.155 2318.347 447.112 2318.347 394.381 L 2318.347 229.811 C 2318.347 218.33 2309.416 205.573 2297.51 205.147 L 2297.51 204.722 L 2385.535 204.722 L 2385.535 205.147 C 2373.628 205.998 2364.698 218.33 2364.698 229.811 L 2364.698 399.484 Z" style="fill-opacity: 1; fill: rgb(255, 255, 255);"/>
  <rect x="31.3" y="1016.7" class="st0" width="85.9" height="184.9" id="rect53" style="fill-opacity: 1; fill: rgb(255, 255, 255);"/>
  <rect x="621.7" y="1006.4" class="st0" width="85.9" height="203.3" id="rect55" style="fill-opacity: 1; fill: rgb(255, 255, 255);"/>
  <polygon class="st0" points="564.1 1165.3 504.3 1240.1 386.3 988.3 469.1 962.6" id="polygon57" style="fill-opacity: 1; fill: rgb(255, 255, 255);"/>
  <rect x="74.3" y="1080.7" class="st0" width="140.5" height="54" id="rect59" style="fill-opacity: 1; fill: rgb(255, 255, 255);"/>
  <rect x="375.6" y="997.3" class="st0" width="54" height="204.3" id="rect61" style="fill-opacity: 1; fill: rgb(255, 255, 255);"/>
  <rect y="962.6" class="st0" width="319.9" height="54" id="rect63" style="fill-opacity: 1; fill: rgb(255, 255, 255);"/>
  <polygon class="st0" points="344.3 1016.7 445.4 1016.7 469.1 962.6 344.3 962.6" id="polygon65" style="fill-opacity: 1; fill: rgb(255, 255, 255);"/>
  <rect x="621.7" y="962.6" class="st0" width="117.2" height="54" id="rect67" style="fill-opacity: 1; fill: rgb(255, 255, 255);"/>
  <rect y="1186.1" class="st0" width="148.6" height="54" id="rect69" style="fill-opacity: 1; fill: rgb(255, 255, 255);"/>
  <rect x="590.3" y="1186.1" class="st0" width="148.6" height="54" id="rect71" style="fill-opacity: 1; fill: rgb(255, 255, 255);"/>
  <rect x="344.3" y="1186.1" class="st0" width="116.7" height="54" id="rect73" style="fill-opacity: 1; fill: rgb(255, 255, 255);"/>
  <rect x="250.6" y="983.7" class="st0" width="69.3" height="87.3" id="rect75" style="fill-opacity: 1; fill: rgb(255, 255, 255);"/>
  <polygon class="st0" points="614.9 962.6 498.1 1198.2 537.6 1240.1 675.2 962.6" id="polygon77" style="fill-opacity: 1; fill: rgb(255, 255, 255);"/>
  <rect x="504.3" y="1192.8" class="st0" width="33.3" height="47.3" id="rect79" style="fill-opacity: 1; fill: rgb(255, 255, 255);"/>
</svg>

<svg xmlns="http://www.w3.org/2000/svg" viewBox="0 0 3840 1260"><path d="M1400.6 933.8c10.6-115 107.3-205 225.1-205s214.4 90 225.1 205h79.3c-10.8-158.7-142.9-284.1-304.3-284.1s-293.5 125.4-304.3 284.1zm225 247.1c-119.6 0-217.5-93-225.5-210.6h-79.2c8.1 161.3 141.4 289.6 304.7 289.6s296.7-128.3 304.7-289.6h-79.2c-7.9 117.7-105.8 210.6-225.5 210.6m-585.9-210.6h79.1v269.8h-79.1zm308.2-300.4H813.8V749h225.9v184.8h79.1V749h229.1zm1380.7 300.4h79.1v269.8h-79.1zm433.6 190.8h-19.4l-84.9-190.7h-86.5l109.2 245.3a41.1 41.1 0 0 0 37.6 24.4h122.9V970.3H3162v190.8zm0-491.2h79.1v263.9h-79.1zM2935 694.4a41.1 41.1 0 0 0-37.6-24.4h-168.8v263.9h79.1V749h65.2l82.3 184.8h86.5zm-402.5 239.4h81l58.5-263.9h-81zm-392.5 231h-14.5l-43.1-194.5h-81l59.8 269.8h143l59.8-269.8h-80.9zm341.3 0h-14.4l-43.1-194.5h-81l59.8 269.8h143l59.8-269.8h-81zm-124.1-494.9h-107.5l-58.5 263.9h80.9l31.3-141 31.3 141h81zm-341.4 0h-81l58.5 263.9h81zM3418.3 922h223.1c21.4 0 39.8 4.3 55.5 11.8h114.4c-31.1-52.4-87.3-90.5-168.8-90.8h-224.2c-62.7 0-62.7-94 0-94h388.6v-79.1h-388.6c-168 0-168 252.1 0 252.1m409.9 48.3h-88.6c47.9 69.8 15.2 190.7-98.2 190.7h-347.3v79.1h347.3c164.7 0 227-153.6 186.8-269.8M1372.1 340.92h62.52c11.9 0 22.96 8.5 23.39 19.98h.42v-47.2h-86.32v-82.5h83.35c11.9 0 22.96 8.5 23.38 19.99h.43v-47.2h-174.78v.42c11.91.85 20.42 13.19 20.42 24.67V445.1c0 11.48-8.93 24.24-20.42 24.67v.42h88.03v-.42c-11.9-.85-20.84-13.19-20.84-24.67zm180.62 58.56c0 27.64 22.96 51.88 51.45 51.88s51.88-24.24 51.88-51.88V230.24c0-11.49-8.93-24.24-20.84-24.67v-.42h88.46c-11.91.85-20.84 13.18-20.84 24.66v164.57c0 53.16-43.8 83.77-98.23 83.77s-99.08-31.04-99.08-83.77V229.81c0-11.48-8.93-24.24-20.42-24.66v-.43h88.03v.43c-11.9.85-20.41 13.18-20.41 24.66zm721.28-152c-14.88-23.81-48.47-20.84-48.47-20.84-55.28 0-52.73 42.1-52.73 42.1s-3.83 21.27 23.81 35.3l55.28 29.34c53.16 28.5 46.78 68.89 46.78 68.89s2.55 75.7-108.86 75.7c0 0-32.32.84-50.6-5.96l-15.74-48.9h.43c17 24.24 66.33 28.06 66.33 28.06 62.51-2.55 62.94-45.07 62.94-45.07s2.98-18.29-21.69-31.47l-54.86-29.34c-57.4-30.62-50.6-71.87-50.6-71.87s-1.7-74.42 96.96-74.42c0 0 44.22 1.28 51.45 8.08v40.4zM1843.58 111.7a55.5 55.5 0 0 0 38.27 15.3c30.2 0 54.43-23.8 54.43-52.73 0-28.91-24.24-52.73-54.43-52.73 0 0-41.67-3.82-60.81 48.06V30.47c14.03-17.86 35.72-30.61 60.38-30.61 42.53 0 76.55 33.17 76.55 74.41 0 41.25-34.45 74.42-76.55 74.42-21.26 0-40.4-8.5-54-21.69l-26.37-28.91c-7.23-6.8-17-11.48-28.06-11.48-22.12 0-39.55 17.43-39.55 38.7 0 21.26 17.86 38.7 39.55 38.7 0 0 29.34 3.82 48.05-31.48V164c-11.48 13.18-28.5 22.11-48.05 22.11-34.45 0-62.09-27.21-62.09-60.38s27.64-60.39 62.09-60.39c17 0 32.74 6.8 43.8 17.86zm14.22 117.7c0-11.48-8.94-23.39-20.84-24.24v-.42h88.02v.42c-11.48.85-20.41 12.76-20.41 24.24v216.45c0 11.48 8.93 24.24 20.41 24.67v.42h-88.02v-.42c11.9-.85 20.83-13.19 20.83-24.67zm-55.13.23c0-11.48 8.93-24.24 20.42-24.66v-.43h-88.03v.43c11.9.85 20.41 13.18 20.41 24.66v270.88s-.85 47.63-39.55 75.27v.43c7.66-1.28 86.33-15.74 86.33-91.86z" class="st0" style="fill-opacity:1;fill:#fff"/><path d="M1924.92 252.42h.42c11.9-20.83 30.2-20.83 30.2-20.83h47.62V445.9c0 11.48-8.93 24.24-20.84 24.66v.43h88.46v-.43c-11.91-.85-20.84-13.18-20.84-24.66V231.6h39.97a21.8 21.8 0 0 1 22.12 21.26h.42l14.46-48.05h-187.96zm439.78 147.06c0 27.64 22.96 51.88 51.88 51.88 28.49 0 51.88-24.24 51.88-51.88V230.24c0-11.49-8.93-24.24-20.41-24.67v-.42h88.02c-11.9.85-20.41 13.18-20.41 24.66v164.57c0 53.16-43.8 83.77-98.66 83.77-54.43 0-98.65-31.04-98.65-83.77V229.81c0-11.48-8.93-24.24-20.84-24.66v-.43h88.02v.43c-11.9.85-20.83 13.18-20.83 24.66zM31.3 1016.7h85.9v184.9H31.3zm590.4-10.3h85.9v203.3h-85.9zm-57.6 158.9-59.8 74.8-118-251.8 82.8-25.7z" class="st0" style="fill-opacity:1;fill:#fff"/><path d="M74.3 1080.7h140.5v54H74.3zm301.3-83.4h54v204.3h-54zM0 962.6h319.9v54H0z" class="st0" style="fill-opacity:1;fill:#fff"/><path d="M344.3 1016.7h101.1l23.7-54.1H344.3zm277.4-54.1h117.2v54H621.7zM0 1186.1h148.6v54H0zm590.3 0h148.6v54H590.3zm-246 0H461v54H344.3zm-93.7-202.4h69.3v87.3h-69.3z" class="st0" style="fill-opacity:1;fill:#fff"/><path d="m614.9 962.6-116.8 235.6 39.5 41.9 137.6-277.5z" class="st0" style="fill-opacity:1;fill:#fff"/><path d="M504.3 1192.8h33.3v47.3h-33.3z" class="st0" style="fill-opacity:1;fill:#fff"/></svg>
